build/img/bootstrap.svg

<svg width="57" height="48" viewBox="0 0 57 48" fill="none" xmlns="http://www.w3.org/2000/svg">
<g clip-path="url(#clip0_403_308)">
<path d="M11.6659 0C8.46173 0 6.09069 3.00824 6.19686 6.27059C6.29887 9.40471 6.16637 13.4642 5.2137 16.7746C4.25818 20.0946 2.64195 22.1976 0.00219727 22.4678V25.5162C2.64195 25.7864 4.25818 27.8894 5.2137 31.2097C6.16637 34.52 6.29887 38.5791 6.19686 41.7134C6.09069 44.9753 8.46173 47.984 11.6663 47.984H44.4983C47.7027 47.984 50.073 44.9758 49.9669 41.7134C49.8651 38.5793 49.9974 34.52 50.95 31.2097C51.9062 27.8897 53.5181 25.7861 56.1578 25.5162V22.4678C53.5181 22.1976 51.9062 20.0946 50.9503 16.7746C49.9974 13.4647 49.8651 9.40494 49.9669 6.27059C50.073 3.00871 47.7027 0 44.4983 0H11.6655H11.6659V0ZM38.074 29.5372C38.074 34.0294 34.9503 36.7537 29.7664 36.7537H20.9417C20.6893 36.7536 20.4472 36.646 20.2688 36.4545C20.0903 36.2631 19.9901 36.0034 19.9901 35.7327V12.2513C19.9901 12.1172 20.0147 11.9844 20.0625 11.8605C20.1103 11.7366 20.1804 11.6241 20.2688 11.5292C20.3572 11.4344 20.4621 11.3592 20.5776 11.3079C20.6931 11.2565 20.8169 11.2301 20.9419 11.2301H29.716C34.0384 11.2301 36.8752 13.7419 36.8752 17.5979C36.8752 20.3045 34.9667 22.7275 32.5356 23.1518V23.2932C35.8455 23.6826 38.074 26.1412 38.074 29.5372V29.5372ZM28.8039 14.4666H23.7725V22.0901H28.0105C31.2864 22.0901 33.093 20.6751 33.093 18.1456C33.093 15.7755 31.5395 14.4666 28.8041 14.4666H28.8039ZM23.7725 25.1151V33.5162H28.9892C32.3998 33.5162 34.2069 32.0482 34.2069 29.2892C34.2069 26.5296 32.3496 25.1146 28.7699 25.1146H23.7725V25.1151Z" fill="#7E13F8"/>
</g>
<defs>
<clipPath id="clip0_403_308">
<rect width="56.16" height="48" fill="white"/>
</clipPath>
</defs>
</svg>

<svg width="57" height="48" fill="none" xmlns="http://www.w3.org/2000/svg"><g clip-path="url(#clip0_403_308)"><path d="M11.666 0C8.462 0 6.09 3.008 6.196 6.27c.103 3.135-.03 7.194-.982 10.505-.956 3.32-2.572 5.423-5.212 5.693v3.048c2.64.27 4.256 2.373 5.212 5.694.952 3.31 1.085 7.37.983 10.503-.106 3.262 2.265 6.271 5.47 6.271h32.831c3.205 0 5.575-3.008 5.469-6.27-.102-3.135.03-7.194.983-10.504.956-3.32 2.568-5.424 5.208-5.694v-3.048c-2.64-.27-4.252-2.373-5.208-5.693-.953-3.31-1.085-7.37-.983-10.504C50.073 3.009 47.703 0 44.498 0H11.666zm26.408 29.537c0 4.492-3.124 7.217-8.308 7.217h-8.824a.92.92 0 01-.673-.3 1.06 1.06 0 01-.279-.721V12.25a1.076 1.076 0 01.279-.722.95.95 0 01.309-.221.895.895 0 01.364-.078h8.774c4.322 0 7.16 2.512 7.16 6.368 0 2.707-1.91 5.13-4.34 5.554v.141c3.31.39 5.538 2.848 5.538 6.244zm-9.27-15.07h-5.031v7.623h4.238c3.275 0 5.082-1.415 5.082-3.944 0-2.37-1.554-3.68-4.289-3.68zm-5.031 10.648v8.401h5.216c3.41 0 5.218-1.468 5.218-4.227 0-2.76-1.857-4.174-5.437-4.174h-4.997z" fill="#7E13F8"/></g><defs><clipPath id="clip0_403_308"><path fill="#fff" d="M0 0h56.16v48H0z"/></clipPath></defs></svg>
